!!!COM: Palestrina, Giovanni Perluigi da
!!!OPR: Nasce la gioia mia
!!!OTL: Agnus II
**kern	**kern	**kern	**kern	**kern	**kern
*Ibass	*Itenor	*Itenor	*Icalto	*Icant	*Icant
!Bassus	!Tenor 2	!Tenor 1	!Altus	!Cantus 2	!Cantus 1
*clefF4	*clefGv2	*clefGv2	*clefG2	*clefG2	*clefG2
*k[b-]	*k[b-]	*k[b-]	*k[b-]	*k[b-]	*k[b-]
*G:dor	*G:dor	*G:dor	*G:dor	*G:dor	*G:dor
*M4/2	*M4/2	*M4/2	*M4/2	*M4/2	*M4/2
=1	=1	=1	=1	=1	=1
1.G	0r	0r	0r	0r	0r
2c	.	.	.	.	.
=2	=2	=2	=2	=2	=2
2B-	1.d	0r	0r	0r	0r
2G	.	.	.	.	.
2.B-	.	.	.	.	.
.	2g	.	.	.	.
4c	.	.	.	.	.
=3	=3	=3	=3	=3	=3
2d	2f	0r	0r	2r	0r
2B	2d	.	.	1g	.
1c	2.e	.	.	.	.
.	.	.	.	2cc	.
.	4f	.	.	.	.
=4	=4	=4	=4	=4	=4
0G	1.g	0r	0r	2b-	1.dd
.	.	.	.	2g	.
.	.	.	.	2.b-	.
.	2G	.	.	.	2gg
.	.	.	.	4cc	.
=5	=5	=5	=5	=5	=5
0r	1.B-	1.d	0r	2dd	2ff
.	.	.	.	2b-	2dd
.	.	.	.	2dd	2ff
.	2c	2g	.	4cc	[2ee
.	.	.	.	4b-	.
=6	=6	=6	=6	=6	=6
0r	2d	2f	0r	2a	4ee]
.	.	.	.	.	4dd
.	2B-	2d	.	2g	1dd
.	1A	2f	.	1a	.
.	.	2e	.	.	2cc#
=7	=7	=7	=7	=7	=7
0r	2B-	1d	2r	2f	2.dd
.	2F	.	1d	1a	.
.	.	.	.	.	4cc
.	1G	2r	.	.	1b-
.	.	[2d	2g	2g	.
=8	=8	=8	=8	=8	=8
1.D	1d	4d]	2f	1.a	1a
.	.	4e	.	.	.
.	.	4f	2d	.	.
.	.	4g	.	.	.
.	1r	2a	2f	.	1dd
2G	.	2d	2g	2b-	.
=9	=9	=9	=9	=9	=9
1F	1.A	[0f	2a	1cc	0r
.	.	.	1cc	.	.
1D	.	.	.	1dd	.
.	2d	.	[2b-	.	.
=10	=10	=10	=10	=10	=10
1F	2c	1f]	4b-]	0r	2r
.	.	.	4a	.	.
.	2A	.	1a	.	1dd
1G	1B-	1d	.	.	.
.	.	.	2g	.	2gg
=11	=11	=11	=11	=11	=11
2.D	1A	2r	4a	2r	2ff
.	.	.	4g	.	.
.	.	1d	4f	2a	2dd
4C	.	.	4e	.	.
2BB-	2B-	.	2d	2dd	2ff
2C	2G	2g	2e	4cc	2ee
.	.	.	.	4b-	.
=12	=12	=12	=12	=12	=12
0D	1d	2f	2.f	4a	2dd
.	.	.	.	4g	.
.	.	2d	.	4f	2.ff
.	.	.	4g	4e	.
.	[1A	1f	1a	2d	.
.	.	.	.	.	4ee
.	.	.	.	2a	[2dd
=13	=13	=13	=13	=13	=13
0A	1A]	2.e	2A	0a	2dd]
.	.	.	2.a	.	4cc#
.	.	4d	.	.	4b
.	2r	1e	.	.	1cc#
.	.	.	4g	.	.
.	2A	.	2e	.	.
=14	=14	=14	=14	=14	=14
0D	2A	1d	1f#	2r	0dd
.	2A	.	.	2a	.
.	[1d	1f#	2r	2a	.
.	.	.	2a	2a	.
=15	=15	=15	=15	=15	=15
0r	2d]	2f#	2a	1.dd	0r
.	2G	2g	4b-	.	.
.	.	.	4a	.	.
.	2B-	2d	4g	.	.
.	.	.	4f	.	.
.	2c	2e	4e	2g	.
.	.	.	4d	.	.
=16	=16	=16	=16	=16	=16
1r	2A	2f#	2c	2a	2r
.	2G	1g	2d	2b-	2dd
1D	[1d	.	2d	[1a	2dd
.	.	4f	2A	.	2dd
.	.	4e	.	.	.
=17	=17	=17	=17	=17	=17
2D	1d]	1f#	2r	1a]	1.dd
2D	.	.	2d	.	.
[1G	2.B-	1g	2d	1r	.
.	.	.	2d	.	2g
.	4c	.	.	.	.
=18	=18	=18	=18	=18	=18
2G]	2d	0r	2g	0r	2b-
2C	2e-	.	2g	.	2cc
2D	2d	.	2f	.	2b-
2E-	2c	.	[2g	.	4a
.	.	.	.	.	4g
=19	=19	=19	=19	=19	=19
1D	1d	1r	2g]	2r	2b-
.	.	.	2f#	2d	2a
1G	2r	2r	2.g	2d	2.b
.	2d	2G	.	2d	.
.	.	.	4a	.	4cc
=20	=20	=20	=20	=20	=20
0r	2d	2G	1b	1.g	2dd
.	2d	2G	.	.	2g
.	[1e	[1c	1cc	.	2g
.	.	.	.	2e	2g
=21	=21	=21	=21	=21	=21
0r	2e]	2c]	0r	2g	2cc
.	2f	2F	.	2a	2cc
.	2d	2G	.	2g	2b
.	2c	2A	.	2f#	[2cc
=22	=22	=22	=22	=22	=22
1r	1d	1G	2r	1g	4cc]
.	.	.	.	.	4b
.	.	.	2g	.	2b
1C	2.e	[1c	2g	2r	1cc
.	.	.	2g	2g	.
.	4d	.	.	.	.
=23	=23	=23	=23	=23	=23
2C	4e	0c]	2.cc	1g	2r
.	4f	.	.	.	.
2C	2g	.	.	.	2cc
.	.	.	4b-	.	.
[1F	[1f	.	4a	2c	2cc
.	.	.	4g	.	.
.	.	.	[2a	2f	2cc
=24	=24	=24	=24	=24	=24
2F]	1f]	0r	4a]	2a	2ff
.	.	.	4g	.	.
2BB-	.	.	2f	2b-	2dd
2C	1r	.	2e	2g	2cc
2D	.	.	[2f	2f	2b
=25	=25	=25	=25	=25	=25
1C	0r	2r	2f]	1g	0cc
.	.	1c	2e	.	.
1F	.	.	2f	1a	.
.	.	2A	[2f	.	.
=26	=26	=26	=26	=26	=26
0r	2r	0B-	2f]	0d	2r
.	1f	.	2d	.	1dd
.	.	.	2f	.	.
.	2d	.	2g	.	2dd
=27	=27	=27	=27	=27	=27
1r	1e	1A	1a	0r	1cc#
[1B-	2.d	2r	1f	.	2.dd
.	.	[2d	.	.	.
.	4e	.	.	.	4cc
=28	=28	=28	=28	=28	=28
2B-]	2f	2d]	0r	0r	4b-
.	.	.	.	.	4a
2G	1g	2d	.	.	2b-
1A	.	1c	.	.	1cc
.	2f#	.	.	.	.
=29	=29	=29	=29	=29	=29
0G	0g	2.d	2r	2r	2b-
.	.	.	1d	1b-	2g
.	.	4c	.	.	.
.	.	2B-	.	.	1dd
.	.	[2d	2B-	2g	.
=30	=30	=30	=30	=30	=30
2.F	0r	4d]	1c	1.a	2r
.	.	4c	.	.	.
.	.	1c	.	.	1ff
4E-	.	.	.	.	.
1D	.	.	1d	.	.
.	.	[2B-	.	2b-	2dd
=31	=31	=31	=31	=31	=31
1C	1r	2B-]	2g	1cc	1ee-
.	.	2A	2c	.	.
[1BB-	2r	[1B-	2.d	2.f	[1dd
.	[2f	.	.	.	.
.	.	.	4e-	4e-	.
=32	=32	=32	=32	=32	=32
1BB-]	2f]	1B-]	2f	1d	1dd]
.	2d	.	1b-	.	.
1r	1e-	1r	.	2r	4g
.	.	.	.	.	4a
.	.	.	2g	[2g	4b-
.	.	.	.	.	4cc
=33	=33	=33	=33	=33	=33
0r	1d	0r	1a	2g]	1dd
.	.	.	.	2f	.
.	4G	.	2g	1b-	1dd
.	4A	.	.	.	.
.	4B-	.	4d	.	.
.	4c	.	4e	.	.
=34	=34	=34	=34	=34	=34
1.D	4d	0r	4f	2a	2r
.	4e	.	4g	.	.
.	4f	.	1a	4d	1ff
.	4g	.	.	4e	.
.	4a	.	.	4f	.
.	4b-	.	.	4g	.
2D	[2a	.	2f	4a	2dd
.	.	.	.	4b-	.
=35	=35	=35	=35	=35	=35
1C	4a]	1r	1g	1cc	1ee-
.	4g	.	.	.	.
.	2g	.	.	.	.
2.D	4f	2r	1r	2a	[1dd
.	4e	.	.	.	.
.	4d	[2f	.	[2a	.
4E	4c#	.	.	.	.
=36	=36	=36	=36	=36	=36
2F	1d	2f]	2r	2a]	1dd]
2G	.	2d	2g	2b	.
1C	2c	1e-	2g	1cc	2r
.	2G	.	2cc	.	[2g
=37	=37	=37	=37	=37	=37
0G	1.B-	0d	2b-	4dd	4g]
.	.	.	.	4cc	4a
.	.	.	2.b-	4b-	4b-
.	.	.	.	4a	4cc
.	.	.	.	4g	[1dd
.	.	.	4a	4f#	.
.	2B-	.	[2g	2g	.
=38	=38	=38	=38	=38	=38
0D	0A	0d	2g]	0a	0dd]
.	.	.	4f#	.	.
.	.	.	4e	.	.
.	.	.	1f#	.	.
=39	=39	=39	=39	=39	=39
0G	0G	0d	0g	0b	0dd
==	==	==	==	==	==
*-	*-	*-	*-	*-	*-
!!!CDT: 1525/^1526/-1594/2/2
!!!OCY: Italia
!!!AGN: Mass (Parody)
!!!AST: renaissance, vocal
!!!ASW: Madrigal 1565 (Primavera)
!!!PWK: Masses, Book 5
!!!RNB: Cadence finals: D
!!!YOR: Le Opere Complete, v. 15, p. 161
!!!YOO: Rome, Italy: Fratelli Scalera
!!!END: 1992//
!!!EED: John Miller
!!!YEC: Copyright 2000, John Miller
!!!YEN: United States of America
!!!YEM: Rights to all derivative electronic formats reserved.
!!!YEM: Refer to licensing agreement for further details.
!!!YEM: This file must be accompanied by the licensing agreement.
!!!YEM: A copy of the licensing agreement may be found at http://www.music-cog.ohio-state.edu/HumdrumDatabases/Palestrina/license.txt
!!!EMD: converted to Humdrum by Bret Aarden
